assets/images/landing/essential-oils-icon.svg

<svg width="80" height="100" viewBox="0 0 80 100" fill="none" xmlns="http://www.w3.org/2000/svg">
<path d="M21.8258 50.1709H52.6501V66.8946H55.7325V40.1366C55.7304 38.3627 55.0803 36.6627 53.925 35.4085C52.7691 34.1549 51.2024 33.4494 49.5677 33.4471H48.0264V30.1024H49.5677C49.9764 30.1024 50.3685 29.9262 50.6575 29.6126C50.9465 29.299 51.1089 28.8735 51.1089 28.43V18.3958C51.1089 17.9523 50.9465 17.5267 50.6575 17.2132C50.3685 16.8996 49.9764 16.7234 49.5677 16.7234H43.4028V6.68915C43.4028 4.29928 42.2276 2.0908 40.3204 0.89567C38.4132 -0.298882 36.0628 -0.298882 34.1555 0.89567C32.2483 2.09097 31.0731 4.29947 31.0731 6.68915V16.7234H24.9083C24.0572 16.7234 23.367 17.4722 23.367 18.3958V28.43C23.367 28.8735 23.5294 29.299 23.8184 29.6126C24.1074 29.9262 24.4996 30.1024 24.9083 30.1024H26.4495V33.4471H24.9083C23.2735 33.4494 21.7068 34.1549 20.5509 35.4085C19.3957 36.6628 18.7455 38.3628 18.7434 40.1366V81.9459H21.8258V50.1709ZM34.1555 6.68915C34.1555 5.49385 34.7431 4.38969 35.6967 3.79241C36.6504 3.19514 37.8256 3.19514 38.7792 3.79241C39.7328 4.38969 40.3204 5.49389 40.3204 6.68915V16.7234H34.1555V6.68915ZM26.4495 20.0681H48.0264V26.7576H26.4495V20.0681ZM29.5319 30.1024H44.944V33.4471H29.5319V30.1024ZM24.9083 36.7919H49.5677C50.3851 36.7926 51.168 37.1458 51.746 37.7729C52.3239 38.4 52.6494 39.2497 52.6501 40.1366V46.8261H21.8258V40.1366C21.8265 39.2496 22.1519 38.4 22.7299 37.7729C23.3078 37.1458 24.0909 36.7926 24.9083 36.7919Z" fill="#424B25"/>
<path d="M79.6962 80.1262C79.4052 78.3807 78.488 76.8323 77.1457 75.8199C75.804 74.8082 74.1466 74.4148 72.5372 74.7269L63.4365 76.5038L62.3453 69.9203H62.3446C62.2723 69.4836 62.0432 69.0961 61.7075 68.843C61.3717 68.5899 60.9575 68.4914 60.555 68.5697L51.4536 70.3467C51.0517 70.425 50.694 70.6744 50.4607 71.0387C50.2275 71.4023 50.1373 71.8525 50.2096 72.2893L50.482 73.9348L45.9313 74.8232H45.932C45.094 74.9867 44.5373 75.8565 44.688 76.7651L45.2426 80.1099L4.48236 89.599C2.94803 89.9559 1.67717 91.1153 1.08887 92.6943C0.50129 94.2734 0.673975 96.0652 1.54917 97.4784C2.42437 98.8916 3.88847 99.7414 5.45787 99.7473C5.69111 99.7473 5.92435 99.7287 6.15553 99.6921L47.4089 93.1698L47.9635 96.5161H47.9628C48.0357 96.9521 48.2649 97.3396 48.6006 97.5927C48.9364 97.8458 49.3506 97.9443 49.7531 97.866L54.3038 96.9775L54.5763 98.623C54.6485 99.0598 54.8777 99.4472 55.2134 99.7003C55.5492 99.9534 55.9641 100.052 56.3666 99.9729L65.4673 98.1959C66.3053 98.0324 66.862 97.1634 66.7113 96.2541L65.6201 89.6707L74.7215 87.8938C76.3301 87.5795 77.7585 86.5842 78.6915 85.1276C79.6245 83.671 79.9864 81.8717 79.6967 80.1254L79.6962 80.1262ZM5.71096 96.3826C4.83232 96.5215 4.01013 95.8802 3.85322 94.932C3.69566 93.9838 4.25986 93.0715 5.12817 92.8699L45.7898 83.4047L46.8631 89.8768L5.71096 96.3826ZM50.7249 94.2779L47.9962 77.8185L51.0298 77.2264L53.7586 93.6858L50.7249 94.2779ZM57.3384 96.3855L53.5178 73.343L59.5863 72.159L63.4064 95.2014L57.3384 96.3855ZM76.1606 83.2192C75.6962 83.9494 74.9813 84.4474 74.1762 84.6019L65.0748 86.3788L63.9835 79.7954L73.0843 78.0185H73.085C73.8893 77.8617 74.7184 78.0581 75.3892 78.5643C76.06 79.0705 76.519 79.8454 76.6635 80.7189C76.8079 81.5916 76.627 82.4913 76.1605 83.2192L76.1606 83.2192Z" fill="#424B25"/>
<path d="M37.238 55.1878C36.7812 55.1878 36.3477 55.408 36.0553 55.7881C34.9654 57.2044 29.532 64.4731 29.532 68.5667C29.532 71.5539 31.001 74.3147 33.385 75.808C35.7691 77.3019 38.7071 77.3019 41.0911 75.808C43.4751 74.3148 44.9441 71.5539 44.9441 68.5667C44.9441 64.4731 39.5113 57.2043 38.4208 55.7881C38.1284 55.408 37.695 55.1878 37.2381 55.1878H37.238ZM41.8617 68.5668C41.8617 70.3594 40.9803 72.0153 39.5499 72.9119C38.1194 73.8078 36.3566 73.8078 34.9262 72.9119C33.4958 72.0152 32.6144 70.3594 32.6144 68.5668C32.6144 66.772 35.0335 62.6642 37.238 59.5411C39.4426 62.6642 41.8617 66.7719 41.8617 68.5668Z" fill="#424B25"/>
<path d="M46.4855 53.5154H49.5679V56.8601H46.4855V53.5154Z" fill="#424B25"/>
</svg>

<svg width="80" height="100" fill="none" xmlns="http://www.w3.org/2000/svg"><path d="M21.826 50.17H52.65v16.725h3.083V40.137c-.003-1.774-.653-3.474-1.808-4.729-1.156-1.253-2.723-1.959-4.357-1.96h-1.542v-3.346h1.542c.408 0 .8-.176 1.09-.49.288-.313.45-.738.45-1.182V18.396c0-.444-.161-.87-.45-1.183a1.483 1.483 0 0 0-1.09-.49h-6.165V6.69c0-2.39-1.175-4.598-3.083-5.793a5.75 5.75 0 0 0-6.164 0c-1.908 1.195-3.083 3.403-3.083 5.793v10.034h-6.165c-.85 0-1.541.75-1.541 1.673V28.43c0 .444.162.869.451 1.183.29.313.682.49 1.09.49h1.541v3.344h-1.54c-1.636.002-3.202.708-4.358 1.961-1.155 1.255-1.805 2.955-1.808 4.729v41.809h3.083V50.17zm12.33-43.48c0-1.196.587-2.3 1.54-2.898a2.875 2.875 0 0 1 3.083 0c.954.598 1.541 1.702 1.541 2.897v10.034h-6.164V6.69zM26.45 20.067h21.576v6.69H26.45v-6.69zm3.082 10.034h15.412v3.345H29.532v-3.345zm-4.624 6.69h24.66c.817 0 1.6.354 2.178.98.578.628.903 1.478.904 2.365v6.69H21.826v-6.69c0-.887.326-1.737.904-2.364.578-.627 1.36-.98 2.178-.981zM79.696 80.126c-.29-1.745-1.208-3.294-2.55-4.306-1.342-1.012-3-1.405-4.609-1.093l-9.1 1.777-1.092-6.584a1.69 1.69 0 0 0-.637-1.077 1.447 1.447 0 0 0-1.153-.273l-9.101 1.777c-.402.078-.76.327-.993.692a1.786 1.786 0 0 0-.251 1.25l.272 1.646-4.55.888c-.838.164-1.395 1.034-1.244 1.942l.555 3.345-40.76 9.489c-1.535.357-2.806 1.516-3.394 3.095a5.507 5.507 0 0 0 .46 4.784c.875 1.414 2.34 2.263 3.909 2.27.233 0 .466-.02.698-.056l41.253-6.522.555 3.346h-.001c.073.436.302.824.638 1.077.335.253.75.351 1.152.273l4.55-.888.273 1.645c.072.437.302.824.637 1.077.336.253.751.352 1.154.273l9.1-1.777c.838-.164 1.395-1.033 1.244-1.942l-1.09-6.583 9.1-1.777c1.61-.315 3.037-1.31 3.97-2.766.933-1.457 1.295-3.256 1.006-5.003v.001zM5.711 96.383c-.879.139-1.7-.503-1.858-1.451-.157-.948.407-1.86 1.275-2.062l40.662-9.465 1.073 6.472-41.152 6.506zm45.014-2.105-2.729-16.46 3.034-.592 2.729 16.46-3.034.592zm6.613 2.107-3.82-23.042 6.068-1.184 3.82 23.042-6.068 1.184zM76.161 83.22c-.465.73-1.18 1.228-1.985 1.383l-9.101 1.777-1.092-6.584 9.101-1.776h.001a2.892 2.892 0 0 1 2.304.545c.671.507 1.13 1.281 1.275 2.155a3.573 3.573 0 0 1-.504 2.5z" fill="#424B25"/><path d="M37.238 55.188c-.457 0-.89.22-1.183.6-1.09 1.416-6.523 8.685-6.523 12.779 0 2.987 1.469 5.748 3.853 7.241a7.185 7.185 0 0 0 7.706 0c2.384-1.493 3.853-4.254 3.853-7.241 0-4.094-5.433-11.363-6.523-12.779-.293-.38-.726-.6-1.183-.6zm4.624 13.379c0 1.792-.882 3.448-2.312 4.345a4.313 4.313 0 0 1-4.624 0c-1.43-.897-2.312-2.553-2.312-4.345 0-1.795 2.42-5.903 4.624-9.026 2.205 3.123 4.624 7.23 4.624 9.026zM46.486 53.515h3.082v3.345h-3.082v-3.345z" fill="#424B25"/></svg>
